X:1
T:Title
%%score 1 { ( 2 3 ) | ( 4 5 6 ) }
L:1/8
Q:1/4=70
M:4/4
K:D
V:1 treble nm="Bariton" snm="Bar."
V:2 treble nm="Piano" snm="Pno."
V:3 treble 
V:4 bass 
V:5 bass 
V:6 bass 
V:1
 z8 | z8 |!p! z2 F2 E2 D2 | d2 B2 A4- | A2 F2 E2 D2 | A3- G E4 | F2 EF D2- EF | G4 F4 | %8
w: ||A- ve Ma-|ri- * a\_\_\_\_\_\_\_|* gra- ti- a|ple- * na,|Do- mi- nus te\_\_\_\_\_\_\_- * *|* cum,|
!mp! A2 GA F2-!<(! GA!<)! | B4-!>(! ^A4!>)! |!mf! z!<(! Bcd e3!<)! d |"^ten." cAdc c3!>(! B | %12
w: Do- mi- nus te\_\_\_\_\_\_\_- * *|* cum,|be- * ne- di- cta-|tu in mu- li- e- ri-|
!p! A4!>)! z ABF | G3 A B2 E2 | F3 G A2 D2 |!pp! d8- |!mf!!<(! d8!<)! |!pp!!>(! !fermata!c8!>)! || %18
w: bus. Et be- ne-|di- ctus fru- ctus|ven- tris tu- i,|Je-||sus.|
!mp! A4 A2 d2 | d3- c/B/ A4 | B4 F2- G2 | A3- G/F/ E4 |:!mp! z2 A2!<(! A2 d2!<)! | %23
w: San- cta Ma-|ri- * * a,|Ma- ter\_\_\_\_ *|De- * * i,|o- ra pro|
 d4"^cresc." B4- |!mf! B2 B2!<(! B2 e2!<)! |!>(! e4 c4!>)! |!p! d3- c B2 c-d | c3- B A4 | %28
w: no- bis,\_\_\_\_\_\_|* o- ra pro|no- bis,|o- * ra pro *|no- * bis,|
 B3- A G2 AB | A3 G F2 DD | D3 D D4- |1 D2 z2 z4 :|1"^," D2- A4 Bc || d3- c/B/!>(! A2 F2!>)! | %34
w: o- * ra pro\_\_ *|no- * bis pec- ca-|to- ri- bus\_\_\_\_||* nunc et in|ho- * * * ra|
!mf! A4 B4 | F4 D4 |!>(! A8!>)! | A6 z2 | B8 |!mf!!pp!!<(!!>(! d8!<)!!>)! |] %40
w: mor- tis|no- strae,|A-|men|A-|men.|
V:2
 F4 DEFG | A3 G/F/ E4 | F4 E2 D2 | D3 E F4- | F2 F2 E2 D2 | A3 G E4 | F2- EF D2 EF | G4 F4 | %8
 A2- GA F2 GA | B4- ^A4 | z B-cd e3 d | cA FE E3 D | C4 z AGF | G3 A B2 E2 | F3 G AFGA | _B2 d6 | %16
 [da]2 [db][=e^c'] [fd'][e^gc'e'] x2 | !fermata![eae']8 || z8 | F2- G2 F4- | F2 D-E F2 G2 | %21
 A3 G E4- |: E2 DC D2 EF | G3 A B4- | B2 ^G2 F2 E2 | E2 G2 F2 E2 | D2 A2 B2 [Ac][Bd] | %27
 [Ac]3 [GB] [FA]4 | B3 A [EG]2 [FA][GB] |"^," [FA]3 [EG] [DF]2 [DA]2 | [DG]2 [DF]2 DE[DF]G |1 %31
 A3 G/F/ E4- :|1 A3 G/F/ G4 || F2 ^E2 F2 D2 | [A,DA]4 [DB]4 | [CF]4 [B,D]4 | A,2 D4 C2 | %37
 [A,D]6 z2 | [B,D]4 [CE]4 | [A,DF]8 |] %40
V:3
 D8- | D6 C2 | D2 A,2 B,C D2 | D2 B,2 A,4 | A,2 D2 C2 B,2 | A,2 B,2 A,4 | A,4 B,2 C2 | B,3 C D4 | %8
 D2 C2 D4 | D3 E F4- | F4 E4- | E2 DC C3- B, | A,4 z2 ^D2 | E4- EDCB, | z2 D4- D2- | D2 d3 e =fg | %16
 x8 | x8 || x8 | D8- | D2 D2 C2 B,2 | A,2 B,2 A,2 ^G,2 |: A,4 D4 | [B,D]6 ^D2 | E4 D4 | D4 C4 | %26
 D2 [DF][CE] D2 z2 | x8 | D2 ^D2 x4 | x8 | x8 |1 D2 A,4 ^G,2 :|1 D2- A,6- || G,2- ^G,2 A,4 | x8 | %35
 x8 | A,4 G,4 | x8 | B,8 | x8 |] %40
V:4
 [D,A,]4 [G,B,]4 | [F,A,]2 [G,B,]2 A,4- | A,4 G,2 F,2 | [B,,F,]2 [G,,G,]2 D,4- | %4
 D,2 [D,A,]2 [A,,G,]2 [B,,F,]2 | D,6 C,2 | D,2 C,2 B,,2 A,,2 | G,,2 E,,2 B,,4 | A,4- A,4 | %9
 G,A, B,2 z CDE |!mf! [B,D]2 [A,C]2 [^G,B,]2 [E,G,]2 |"^,""^ten." A,2 F,4 ^G,2 | %12
!p! z2 E,2 A,2 B,2- | B,4 z2 A,,2 | A,4 A, x3 | G,2 D=C D3 E | ^F4 F2 E2 |!pp! !fermata![A,CE]8 || %18
 z8 |!mp! A,2- B,2 A,4 | D,8- | D,4 C,2 D,2- |: D,2 G,2!<(! F,2 G,A,!<)! | %23
 G,2 [G,,D,]2!<(! G,2 [F,A,]2!<)! | ^G,2 B,2 A,2 G,2 |"^Rit _  _  _" A,2 B,2 A,2 G,2 | %26
!p! F,2 x2 B,4 | x2 C4 DE | B,4 B,4 |"^," A,4 A,2 [D,A,]2 |"^," B,2 A,2 G,2 D,E, |1 %31
 F,2 D,2 C,2 D,2- :|1 F,2 D,3 C, B,,A,, || [D,,D,]8 | D,8 | A,4 F,4 | D,4 A,,4- | A,,4 D,4- | %38
 [G,,D,-]8 | [D,,D,]8 |] %40
V:5
 x8 | x8 | D,8 | x8 | x8 | F,,2 G,,2 A,,4 | x8 | x8 | F,2 E,2 D,2 E,F, | G,4 F,4 | x8 | %11
 A,2 B,,C, D,2 E,2 | A,,4 z2 B,,2 | E,3 B,,2 F, G,2 | D,3 E, F,D,E,F, | z4 _B,4 | A,2 D^C [B,D]4 | %17
 x8 || x8 | D,6 C,2 | B,,4 A,,2 G,,2 | F,,2 G,,2 A,,2 B,,2 |: A,,4 D,4 | x8 | E,4 [E,,E,]4 | A,,8 | %26
 D,4 G,4 | [E,G,]4 [F,A,]4 | G,2 F,2 E,2 D,2 | C,2 A,,2 D,2 F,,2 | G,,2 A,,2 B,,4 |1 %31
 A,,2 F,,2 A,,2 B,,2 :|1 A,,2 F,,2 E,,4 || x8 | F,,4 G,,4 | A,,4 B,,2 A,,G,, | F,,4 E,,4 | D,,8 | %38
 x8 | x8 |] %40
V:6
 x8 | x8 | x8 | x8 | x8 | x8 | x8 | x8 | x8 | x8 | x8 | x8 | x8 | x8 | x8 | x8 | x8 | x8 || x8 | %19
 x8 | x8 | x8 |: x8 | x8 | x8 | x8 | x8 | x8 | x8 | x8 | D,4 x4 |1 x8 :|1 x8 || x8 | x8 | x8 | x8 | %37
 x8 | x8 | x8 |] %40

